X:576
T: JAMMER JAMMER UEBER JAMMER
N: E1882
O: Europa, Mitteleuropa, Deutschland, Bergisches Land, Mettmann
R: Kinder - Lied, Tanz, Ringelreihen
M: 3/4
L: 1/8
K: C
CD | E2E2FE | D2D2
ED | C2E2DD | C2z2
CD | E2E2FE | D2D2
ED | C2E2DD | C2z2
CD | E2E2FE | D2D2
ED | C2E2DD | C2z2
E2CE | DDCz
E2CE | DDCz
EECE | D2Cz
EECE | D2Cz
GGc2 | GGc2
GFED | DCC2

@@@ Tune index: 5260
